X: 8118
T: Contradiction, The
R: reel
M: 4/4
K: Dmajor
f3d eA A/A/A|cdef g2ag|fffd cdef|gece aaag|
effd eA A/A/A|cdef g2ag|fffd cdef|gece d2df||
ad d/d/d adfd|ceAe ceAe|ad d/d/d adfd|ceAe fd d/d/d|
ad d/d/d adfd|ceAe ceAe|agfe fedB|cAeA ddde||
dAfA dAfA|eAgA eAgA|GAaA GAaA|g2fd Ad d/d/d|
dAfA dAfA|eAgA eAgA|GAaA GAaA|{f}g2 fd Ad d/d/d||
faaa faaf|g2fd eA A/A/A|faaa faaA|BAcA ddde|
faaa faaf|g2fd eA A/A/A|fefa BBBa|cAeA ddd2||

